icons/folder_type_cli_opened.svg

<svg xmlns="http://www.w3.org/2000/svg" viewBox="0 0 32 32"><path d="M27.4 5.5h-9.2l-2.1 4.2H4.3v4H.5l3.8 12.8h25.2v-21Zm-7.2 2.1h7.1v2.1h-8.1Zm5.5 6.1H6.6v-1.9h20.8v7.626Z" style="fill:#9b9b9b"/><path d="M31 14v17H10V14Z" style="fill:#d9b400"/><path d="M10.5 14.5v16h20v-16Zm19.04 15.093h-18.1V15.407h18.12v14.186Zm-15.58-5.066.68.622L18.5 21.7l-3.92-3.484-.68.6 3.24 2.88Zm4.54 1.031h6v.711h-6Z"/></svg>

<svg xmlns="http://www.w3.org/2000/svg" viewBox="0 0 32 32"><title>folder_type_cli_opened</title><path d="M27.4,5.5H18.2L16.1,9.7H4.3v4H.5L4.3,26.5H29.5V5.5ZM20.2,7.6h7.1V9.7H19.2Zm5.5,6.1H6.6V11.8H27.4v7.626Z" style="fill:#9b9b9b"/><path d="M31,14V31H10V14Z" style="fill:#d9b400"/><path d="M10.5,14.5v16h20v-16ZM29.54,29.593H11.44V15.407H29.56V29.593ZM13.96,24.527l.68.622L18.5,21.7l-3.92-3.484-.68.6,3.24,2.88Zm4.54,1.031h6v.711h-6Z"/></svg>
